X: 36
T: the Dress'd Ship   [G]
O: Thompson 1774
R: reel, polka
M: C
L: 1/8
Z: 2011 John Chambers <jc:trillian.mit.edu>
B: Charles & Samuel Thompson eds "Twenty Four Country Dances", London 1774, p.18 #2
K: G
% - - - - - - - - - - - - - - - - - - - - - - - - -
d/c/ |\
"G"BG DB "C"c2 (c/d/e) | "G"dB gB "Am"cA- "D7"Ad/c/ "I"|\
"G"BG DB "C"c{d}e "G"dg | "Am"ec "D7"Ad "G"BG- G :|
|: e/f/ |\
"G"gd BG "C"e/f/g/e/ "G"dB | "C"c{d}e "G"dB "Am"cA- "D7"Ae/f/ |\
"G"gd BG "C"e/f/g/e/ "G"dB | "Am"ec "D7"Ad "G"BG- G :|
% - - - - - - - - Dance description - - - - - - - -
% %begintext align
% % 1st Man set to the 2d Wo. & turn .|. 1st
% % Wo. do the same :|. cast off 1 Cu. &
% % Allemand .|: cast up & Allemand & lead
% % down in the 2d Cu.s place :|:
% %endtext


